X:1
T:Celestin
T:Celestin
T:Al Lirvat
C:Al Lirvat
Z:All Rights Reserved
L:1/8
M:4/4
K:Bb
V:1 treble nm="Accordion" snm="Acc."
%%MIDI program 21
V:1
 z/ d/e/=e/ ||"^A" f/df/ z2 z/ df/- f/d/f | e/ce/ z2 z4 | g/eg/ z2 z/ eg/- g/e/g | %4
 f/df/ z2 z3/2 ^f/- f/ga/ | b/gb/ z2 z/ gb/- b/g/b | a/fa/ z2 z/ fa/- a/f/a | %7
 g/eg/ z2 z/ eg/- g/e/g | f/f/f f/f/f f/f/f/f/- f/f/f | f/df/ z2 z/ df/- f/d/f | e/ce/ z2 z4 | %11
 g/eg/ z2 z/ eg/- g/ag/ | ^f8 | g/eg/ z2 z/ =eg/- g/=e/g | f/df/ z2 z/ df/- f/d/f | %15
 e/ce/ z2 z/ fe/- e/dc/ | B4 z4 ||"^B" b>g- g2 z2 z d | e>d- d2 z4 | a>^f- f2 z2 z d | e>d- d2 z4 | %21
 b>g- g2 z2 z d | e>d- d2 z4 | a>^f- f2 z2 z d | e>d- d2 z4 | b>g-gd =b>g-gd | c'>g-ge ^c'>b-bg | %27
 d'>b-bg a>^f-fd | g>a-ab a2 z2 ||"^C" d2 d2 d2 ed | dccc c2 z2 | c2 c2 c2 _dc | cBBB B2 z2 | %33
 B2 B2 B2 cB | cddd d2 z d | dccc c2 z G | dccc c2 z2 |] %37

